app/images/social/linkedin-box.svg

<svg xmlns="http://www.w3.org/2000/svg" width="24" height="24" viewBox="0 0 24 24">
  <path style="fil:#000"
        d="M19 3a2 2 0 0 1 2 2v14a2 2 0 0 1-2 2H5a2 2 0 0 1-2-2V5a2 2 0 0 1 2-2h14m-.5 15.5v-5.3a3.26 3.26 0 0 0-3.26-3.26c-.85 0-1.84.52-2.32 1.3v-1.11h-2.79v8.37h2.79v-4.93c0-.77.62-1.4 1.39-1.4a1.4 1.4 0 0 1 1.4 1.4v4.93h2.79M6.88 8.56a1.68 1.68 0 0 0 1.68-1.68c0-.93-.75-1.69-1.68-1.69a1.69 1.69 0 0 0-1.69 1.69c0 .93.76 1.68 1.69 1.68m1.39 9.94v-8.37H5.5v8.37h2.77z"/>
</svg>

<?xml version="1.0" encoding="UTF-8"?><!DOCTYPE svg PUBLIC "-//W3C//DTD SVG 1.1//EN"
  "http://www.w3.org/Graphics/SVG/1.1/DTD/svg11.dtd">
<svg xmlns="http://www.w3.org/2000/svg"
     version="1.1" width="24" height="24" viewBox="0 0 24 24">
  <path style="fil:#000"
        d="M19,3A2,2 0 0,1 21,5V19A2,2 0 0,1 19,21H5A2,2 0 0,1 3,19V5A2,2 0 0,1 5,3H19M18.5,18.5V13.2A3.26,3.26 0 0,0 15.24,9.94C14.39,9.94 13.4,10.46 12.92,11.24V10.13H10.13V18.5H12.92V13.57C12.92,12.8 13.54,12.17 14.31,12.17A1.4,1.4 0 0,1 15.71,13.57V18.5H18.5M6.88,8.56A1.68,1.68 0 0,0 8.56,6.88C8.56,5.95 7.81,5.19 6.88,5.19A1.69,1.69 0 0,0 5.19,6.88C5.19,7.81 5.95,8.56 6.88,8.56M8.27,18.5V10.13H5.5V18.5H8.27Z"/>
</svg>
